!!!OTL: Jetzt mu&szlig; ich unter die Fremde (Band 1), S. 219
!!!id: P0852
**kern
*clefG2
*k[b-]
*F:
{8c
=1
8f
8c
8f
=2
8a
8f
8a
=3
4cc
8a
=4
4.a}
=5
{4a
8g
=6
8b-
8b-
8g
=7
8f
8d
8f
=8
8c
8e
8g
=9
4cc}
=10
{8a
=11
8a
8cc
8a
=12
8g
8f
8g
=13
4f}
==
*-
!!!minrhy: 8
!!!meters: 3/8 ]  ZZ[3
!!!cut: Jetzt mu&szlig; ich unter die Fremde (Band 1), S. 219
!!!reg: Lothringen
!!!trd: PINCK, Louis: Verklingende Weisen, Bd 1, Metz 1928
!!!rhy1: X  XXX  XXX  X_X  X_.
!!!rhy2: X_X  XXX  XXX  XXX  X_
!!!key: P0852  08  F 3/8 ]  ZZ[3
!!!mod: HEPTATONIK IONISCH]  AMBITUS[8
!!!kad: 351
!!!akz: 1353_341-55_321_
!!!fot: 'a__b__c__
!!!for: 'a__b__aw_
!!!fok: '^a_Va_\__
!! PHRAS[VORWIEGEND AUFTAKTIG]
!!!fkt: Liebe, Abschied, Heimkehr, Tod , Trauer
!! LOTH VKL
!! PR[2] 2K[7] 2G[15] 3K[15] 3G[7] 4A[2] 4Ü[0] 5A[0] 6K[0] 6G[2]
!! 7K[0] 7G[0] 8A[0] MEHR[0] SI[49] ABS[41] SR[22] SP[27]
!! ST[10] 2k[10] 2g[22] 3k[7] 3g[2] 4d[2] 4ü[0] 5d[5] 6k[0] 6g[0]
!! 7k[0] 7g[0] 8d[0] mehr[0] si[49] dm[0] sr[32] sp[17]
!! 1F[2] 2F[56] 3F[31] 4F[0] LF[0] 2P[2] 3P[2] 4P[0] TRI[0] DF[6] AB[45]
!! TF[0] U3K[0] U3[0] U4[0] U4Ü[0] U5[5] U6K[0] U6[2] U7K[0] U7[7]
!! N1[17] N2K[0] N2[17] N3K[0] N3[14] N4[12] N4Ü[0] N5[17] N6K[0] N6[7]
!!!n7k: 0] N7[0] O1[2] O2K[0] O2[0] O3K[0] O3[0] HÖ[0
!!!RNB: symbol: &szlig; = sz ligature (UTF-8: ÃŸ)
